X: 74
I: linebreak $
T: Newcastle
T: square for four couples
P: AA BB x 3
C: 
K: G major
M: 2/2
L: 1/4
P: A
 |: "G"Bd G"D"A | "G"G3/A/ GD | "G"Bd Gd | "C"eg2f/e/ | "G"dB "D"A"G"G | "C"Ee2d/c/ | 
"G"dB "D"A3/G/ |  [1 "G"G3D :|]  [2 "G"G3 :: 
P: B
"C"e/f/ | "G"g/f/e/d/ g3/B/ | "Am"A"C"g2"Am"A | "G"G3/A/ B"D"F | 
"C"Ee2"D"f | "G"g/f/e/d/ g3/B/ | "Am"AA c3/d/ | "C"e"G"B "D"A3/G/ | "G"G3 :| 

